img/icons/Email.svg

<?xml version="1.0" encoding="UTF-8"?>
<svg xmlns="http://www.w3.org/2000/svg" xmlns:xlink="http://www.w3.org/1999/xlink" width="176pt" height="196pt" viewBox="0 0 176 196" version="1.1">
    <defs>
        <image id="image5" width="176" height="196" xlink:href="data:image/png;base64,iVBORw0KGgoAAAANSUhEUgAAALAAAADECAIAAACwZjzeAAAABmJLR0QA/wD/AP+gvaeTAAABwUlEQVR4nO3SoQHAIBDAwNL9d34UIhOAuJsgImtmPjj+2wG8xRCEIQhDEIYgDEEYgjAEYQjCEIQhCEMQhiAMQRiCMARhCMIQhCEIQxCGIAxBGIIwBGEIwhCEIQhDEIYgDEEYgjAEYQjCEIQhCEMQhiAMQRiCMARhCMIQhCEIQxCGIAxBGIIwBGEIwhCEIQhDEIYgDEEYgjAEYQjCEIQhCEMQhiAMQRiCMARhCMIQhCEIQxCGIAxBGIIwBGEIwhCEIQhDEIYgDEEYgjAEYQjCEIQhCEMQhiAMQRiCMARhCMIQhCEIQxCGIAxBGIIwBGEIwhCEIQhDEIYgDEEYgjAEYQjCEIQhCEMQhiAMQRiCMARhCMIQhCEIQxCGIAxBGIIwBGEIwhCEIQhDEIYgDEEYgjAEYQjCEIQhCEMQhiAMQRiCMARhCMIQhCEIQxCGIAxBGIIwBGEIwhCEIQhDEIYgDEEYgjAEYQjCEIQhCEMQhiAMQRiCMARhCMIQhCEIQxCGIAxBGIIwBGEIwhCEIQhDEIYgDEEYgjAEYQjCEIQhCEMQhiAMQRiCMARhCMIQhCEIQxCGIAxBGIIwBGEIwhCEIYgNTDwEhTMy1bwAAAAASUVORK5CYII=" />
        <pattern id="pattern0" patternUnits="userSpaceOnUse" width="176" height="196">
            <use xlink:href="#image5" />
        </pattern>
    </defs>
    <g id="surface1">
        <path style=" stroke:none;fill-rule:nonzero;fill:url(#pattern0);" d="M 101.640625 13 L 88.234375 1.28125 L 74.796875 13 L 101.640625 13 M 174.765625 75.859375 C 174.765625 74.796875 173.90625 73.9375 172.890625 73.9375 L 171.671875 73.9375 L 146.5625 52.0625 L 146.5625 71.90625 L 155.78125 79.953125 L 144.171875 89.0625 L 88 130.234375 L 31.796875 89.0625 L 20.5 80.546875 L 29.0625 73.046875 L 29.0625 52.8125 L 4.765625 73.9375 L 3.078125 73.9375 C 2.0625 73.9375 1.203125 74.796875 1.203125 75.859375 L 1.203125 192.8125 C 1.203125 193.828125 2.0625 194.6875 3.078125 194.6875 L 172.890625 194.6875 C 173.90625 194.6875 174.765625 193.828125 174.765625 192.8125 L 174.765625 75.859375 M 159.6875 96.40625 L 159.6875 179.609375 L 16.28125 179.609375 L 16.28125 96.40625 L 86.875 148.125 C 87.53125 148.625 88.4375 148.625 89.09375 148.125 L 159.6875 96.40625 M 40.890625 24.40625 L 40.734375 90.734375 L 33.234375 84.875 L 33.234375 16.90625 L 143.234375 16.90625 L 143.234375 83.046875 C 140.703125 84.71875 138.203125 86.359375 135.734375 88.046875 L 135.734375 24.40625 L 40.890625 24.40625 " />
    </g>
</svg>

<svg xmlns="http://www.w3.org/2000/svg" xmlns:xlink="http://www.w3.org/1999/xlink" width="176pt" height="196pt" viewBox="0 0 176 196"><defs><pattern id="b" patternUnits="userSpaceOnUse" width="176" height="196"><use xlink:href="#a"/></pattern><image id="a" width="176" height="196" xlink:href="data:image/png;base64,iVBORw0KGgoAAAANSUhEUgAAALAAAADECAIAAACwZjzeAAAABmJLR0QA/wD/AP+gvaeTAAABwUlEQVR4nO3SoQHAIBDAwNL9d34UIhOAuJsgImtmPjj+2wG8xRCEIQhDEIYgDEEYgjAEYQjCEIQhCEMQhiAMQRiCMARhCMIQhCEIQxCGIAxBGIIwBGEIwhCEIQhDEIYgDEEYgjAEYQjCEIQhCEMQhiAMQRiCMARhCMIQhCEIQxCGIAxBGIIwBGEIwhCEIQhDEIYgDEEYgjAEYQjCEIQhCEMQhiAMQRiCMARhCMIQhCEIQxCGIAxBGIIwBGEIwhCEIQhDEIYgDEEYgjAEYQjCEIQhCEMQhiAMQRiCMARhCMIQhCEIQxCGIAxBGIIwBGEIwhCEIQhDEIYgDEEYgjAEYQjCEIQhCEMQhiAMQRiCMARhCMIQhCEIQxCGIAxBGIIwBGEIwhCEIQhDEIYgDEEYgjAEYQjCEIQhCEMQhiAMQRiCMARhCMIQhCEIQxCGIAxBGIIwBGEIwhCEIQhDEIYgDEEYgjAEYQjCEIQhCEMQhiAMQRiCMARhCMIQhCEIQxCGIAxBGIIwBGEIwhCEIQhDEIYgDEEYgjAEYQjCEIQhCEMQhiAMQRiCMARhCMIQhCEIQxCGIAxBGIIwBGEIwhCEIYgNTDwEhTMy1bwAAAAASUVORK5CYII="/></defs><path d="M101.64 13L88.235 1.281 74.797 13h26.844m73.125 62.86c0-1.063-.86-1.922-1.875-1.922h-1.22l-25.108-21.876v19.844l9.218 8.047-11.61 9.11L88 130.233 31.797 89.062 20.5 80.547l8.563-7.5V52.813L4.765 73.936H3.078c-1.015 0-1.875.86-1.875 1.922v116.954c0 1.015.86 1.875 1.875 1.875h169.813c1.015 0 1.875-.86 1.875-1.875V75.859m-15.078 20.547v83.203H16.28V96.406l70.594 51.719c.656.5 1.563.5 2.219 0l70.594-51.719m-118.797-72l-.157 66.328-7.5-5.859V16.906h110v66.14c-2.53 1.673-5.03 3.313-7.5 5v-63.64H40.891" fill="url(#b)"/></svg>
